packages/foundations/assets/icons/functional/images/business & payment/shopping_cart_disabled_28.svg

<svg width="28" height="28" viewBox="0 0 28 28" fill="none" xmlns="http://www.w3.org/2000/svg">
<g clip-path="url(#clip0_2202_1399)">
<path fill-rule="evenodd" clip-rule="evenodd" d="M20.2213 22.6405C21.0163 22.6405 21.6583 23.2825 21.6583 24.0775C21.6583 24.8425 21.0163 25.4845 20.2213 25.4845C20.0364 25.485 19.8532 25.449 19.6823 25.3785C19.5113 25.308 19.356 25.2043 19.2253 25.0736C19.0945 24.9428 18.9909 24.7875 18.9204 24.6166C18.8498 24.4456 18.8138 24.2624 18.8143 24.0775C18.8143 23.2825 19.4263 22.6405 20.2213 22.6405ZM10.1583 22.6405C10.9533 22.6405 11.5953 23.2825 11.5953 24.0775C11.5953 24.8425 10.9533 25.4845 10.1583 25.4845C9.9735 25.4849 9.79041 25.4488 9.61958 25.3782C9.44875 25.3076 9.29355 25.204 9.1629 25.0732C9.03225 24.9425 8.92872 24.7872 8.85826 24.6163C8.7878 24.4455 8.7518 24.2623 8.75233 24.0775C8.75233 23.2825 9.36333 22.6405 10.1583 22.6405ZM4.31733 2.5155C5.47133 2.5155 6.48433 3.2855 6.76733 4.3845L6.93933 5.1535H21.9393L24.3163 2.7755C24.3976 2.69421 24.4941 2.62973 24.6003 2.58574C24.7065 2.54175 24.8204 2.5191 24.9353 2.5191C25.0503 2.5191 25.1641 2.54175 25.2703 2.58574C25.3765 2.62973 25.473 2.69421 25.5543 2.7755C25.6356 2.85679 25.7001 2.95329 25.7441 3.0595C25.7881 3.16571 25.8107 3.27954 25.8107 3.3945C25.8107 3.50946 25.7881 3.6233 25.7441 3.7295C25.7001 3.83571 25.6356 3.93221 25.5543 4.0135C19.1406 10.4304 12.7253 16.8458 6.30833 23.2595C6.22698 23.3409 6.1304 23.4054 6.0241 23.4494C5.91781 23.4934 5.80388 23.5161 5.68883 23.5161C5.57378 23.5161 5.45985 23.4934 5.35356 23.4494C5.24727 23.4054 5.15069 23.3409 5.06933 23.2595C4.98798 23.1781 4.92344 23.0816 4.87942 22.9753C4.83539 22.869 4.81273 22.7551 4.81273 22.64C4.81273 22.525 4.83539 22.411 4.87942 22.3047C4.92344 22.1984 4.98798 22.1019 5.06933 22.0205C6.06433 21.0235 7.05933 20.0275 8.05833 19.0325L8.03833 18.9495L5.18733 5.0975C5.05033 4.5075 4.68233 4.2555 4.31733 4.2555H3.05933C2.82892 4.25445 2.60824 4.16245 2.44531 3.99952C2.28238 3.83659 2.19038 3.61592 2.18933 3.3855C2.18933 2.9085 2.58233 2.5155 3.05933 2.5155H4.31733ZM20.9993 19.1475C21.4763 19.1475 21.8693 19.5405 21.8693 20.0175C21.8693 20.4945 21.4763 20.8875 20.9993 20.8875H11.1313L12.8713 19.1475H20.9993ZM10.6993 16.3925L9.29633 16.5425L9.51933 17.5725L10.6993 16.3925ZM25.3423 6.6765C25.3683 6.8665 25.3623 7.0625 25.3203 7.2585L23.8053 13.2025C23.5803 14.2415 22.7393 15.0275 21.7003 15.2235L16.2123 15.8065L18.1903 13.8275L21.4763 13.4835C21.7843 13.3995 22.0093 13.1465 22.0933 12.8095L23.0863 8.9305L25.3423 6.6765ZM20.1983 6.8935H7.29233L8.91933 14.8035L12.6853 14.4065L20.1983 6.8935Z" fill="#1A1C1F"/>
</g>
<defs>
<clipPath id="clip0_2202_1399">
<rect width="28" height="28" fill="white"/>
</clipPath>
</defs>
</svg>

<svg xmlns="http://www.w3.org/2000/svg" width="28" height="28" fill="none"><g clip-path="url(#a)"><path fill="#1A1C1F" fill-rule="evenodd" d="M20.221 22.64c.795 0 1.437.642 1.437 1.438 0 .765-.642 1.407-1.437 1.407a1.404 1.404 0 0 1-1.407-1.407c0-.796.612-1.437 1.407-1.437m-10.063 0c.795 0 1.437.642 1.437 1.438 0 .765-.642 1.407-1.437 1.407a1.403 1.403 0 0 1-1.406-1.407c0-.796.611-1.437 1.406-1.437M4.318 2.517c1.153 0 2.166.77 2.45 1.869l.171.769h15l2.377-2.378a.876.876 0 0 1 1.238 1.237A53976 53976 0 0 1 6.308 23.26a.875.875 0 0 1-1.429-.954.9.9 0 0 1 .19-.285q1.491-1.495 2.99-2.988l-.02-.082L5.186 5.098c-.137-.59-.505-.843-.87-.843H3.06a.874.874 0 0 1-.87-.87c0-.476.393-.87.87-.87zm16.681 16.632c.477 0 .87.393.87.87 0 .476-.393.87-.87.87h-9.868l1.74-1.74zm-10.3-2.756-1.403.15.223 1.03zm14.643-9.715q.04.287-.022.582l-1.515 5.944c-.225 1.039-1.066 1.825-2.105 2.02l-5.488.583 1.978-1.978 3.286-.344c.308-.085.533-.338.617-.675l.993-3.878zm-5.144.217H7.292l1.627 7.91 3.766-.398z" clip-rule="evenodd"/></g><defs><clipPath id="a"><path fill="#fff" d="M0 0h28v28H0z"/></clipPath></defs></svg>
